X:1
T:Lyndhurst (Vail), 11.11.11.11
T:Lyndhurst (Vail), 11.11.11.11
T:Silas Jones Vail, 1883
T:Public Domain Courtesy of the Cyber Hymnal™
C:Silas Jones Vail, 1883
Z:Public Domain
Z:Courtesy of the Cyber Hymnal™
%%score 1 ( 2 3 )
L:1/8
M:4/4
K:Ab
V:1 treble 
V:2 bass 
V:3 bass 
V:1
 [CE]2 [CE]2 [EA]2 [EB]2 | [Ec]4 [EA]4 | [FA]2 [=EG]2 [FA]2 [DF]2 | [CE]8 | %4
 [CE]2 [CE]2 [EA]2 [EB]2 | [Ec]4 [_Ge]4 | [Fd]2 [DB]2 [CA]2 [DG]2 | [CA]8 | %8
 [EB]2 [EB]2 [EB]2 [Ec]2 | [Ed]4 [EB]4 | [Ec]2 [Ec]2 [Ec]2 [A=d]2 | [Ge]8 | %12
 [CE]2 [CE]2 [EA]2 [EB]2 | [Ec]4 [Ge]4 | [Fd]2 [DB]2 [CA]2 [DG]2 | [CA]8 |] %16
V:2
 [A,,A,]2 [A,,A,]2 [C,A,]2 [E,G,]2 | A,4 [C,A,]4 | [D,A,]2 [D,A,]2 [D,A,]2 [D,A,]2 | [A,,A,]8 | %4
 [A,,A,]2 [A,,A,]2 [C,A,]2 [E,G,]2 | A,4 [C,A,]4 | [D,A,]2 [D,F,]2 E,2 E,2 | [A,,E,]8 | %8
 [E,G,]2 [E,G,]2 [E,G,]2 [E,A,]2 | [E,B,]4 [E,G,]4 | A,2 A,2 A,2 [F,B,]2 | [E,B,]8 | %12
 [A,,A,]2 [A,,A,]2 [C,A,]2 [E,G,]2 | A,4 [C,A,]4 | [D,A,]2 [D,F,]2 E,2 E,2 | [A,,E,]8 |] %16
V:3
 x8 | A,4 x4 | x8 | x8 | x8 | A,4 x4 | x4 E,2 E,2 | x8 | x8 | x8 | A,2 A,2 A,2 x2 | x8 | x8 | %13
 A,4 x4 | x4 E,2 E,2 | x8 |] %16

